X:1
T:Title
%%score { ( 1 4 ) | ( 2 3 ) }
L:1/8
M:6/8
K:A
V:1 treble nm="Grand Piano"
V:4 treble 
V:2 bass 
V:3 bass 
V:1
 z3 z2[Q:1/4=100] E | [CE]FG [CA]Bc | [DF]3 [DB]2 A | GFE F2 E | [CE]3- [CE]2 E | [CE]FG [CA]Bc | %6
 [DF]3 [DB]2 A | GFG c2 B | [CA]3- [CA]2 G | [B,G]AB Bcd | [Ec]3 [CA]2 c | [ce]dc [ce]dc | [GB]6 | %13
 [CE]FG [CA]Bc | [=Ge]3 [Fd]2 d | c2 A/c/ B2 A | [CA]6 | [CE]3 [CF]2 F | [A,C]6 | [CA]3 [DB]2 B | %20
 [DF]6 | [B,G]3 [CA]2 B | [CE]6 | [^DFc]3 [DFB]2 F | [EGB]6 | [CE]3 [CF]2 F | [A,C]6 | %27
 [CA]3 [DB]2 c | [FBd]6 | [EGBd]3 [EGc]2 [GB] |[M:7/8] [Ae]3- [=GAe]3 [FAd] |[M:3/4] A2 z2 z2 | %32
 [CEA]6 |] %33
V:2
 z3 z2 C | z DD z DE | D,F,B, D,2 D | [E,B,D]2 D [E,G,D]2 D | A,,C,E, A,,2 C | z DD z DE | %6
 D,F,B, D,2 D | [E,B,D]2 D [E,G,E]2 D | [A,,E,]3- [A,,E,]2 B, | z DD D[K:treble]EF | %10
 A,,C,E, A,2[K:treble] A | z BA z BA | E,G,B, E,2 D | z DD z DE | C,E,A, [D,A,]2 F | %15
 [E,A,E]2 C [E,G,D]2 C | [A,,E,]6 | A,,C,E, A,2 C | A,,C,E, .A,,3 | F,,A,,C, F,2 D | %20
 D,,F,,A,, .D,3 | E,,G,,B,, E,2 D | A,,C,E, .A,3 | B,,^D,F, A,2 ^D | E,G,B, DCB, | A,,C,E, A,2 C | %26
 A,,C,E, .A,,3 | F,,A,,C, F,2 E | B,,D,F, .B,3 | E,,G,,B,, E,2 E |[M:7/8] C,E,A, C3 D, | %31
[M:3/4] z2 .A2 z E | A,,6 |] %33
V:3
 x6 | .[A,,E,]3 .[A,,E,]3 | x6 | x6 | x6 | .[A,,E,]3 .[A,,E,]3 | x6 | x6 | x6 | %9
 .E,3 .[E,G,]3[K:treble] | x5[K:treble] x | .[A,E]3 .E3 | x6 | .[A,,E,]3 .[A,,E,]3 | x6 | x6 | x6 | %17
 x6 | x6 | x6 | x6 | x6 | x6 | x6 | x6 | x6 | x6 | x6 | x6 | x6 |[M:7/8] x7 |[M:3/4] E,3 E,3 | %32
 x6 |] %33
V:4
 x6 | x6 | x6 | x6 | x6 | x6 | x6 | x6 | x6 | x6 | x6 | x6 | z3 D2 E | x6 | x6 | x6 | x6 | x6 | %18
 x6 | x6 | x6 | x6 | x6 | x6 | D3 z3 | x6 | x6 | x6 | x6 | x6 |[M:7/8] E3 z z z2 | %31
[M:3/4] [Ec]3 .[DGB]3 | x6 |] %33

